packages/core/src/svgs/tokens/branded/LAKE.svg

<svg width="24" height="24" viewBox="0 0 24 24" fill="none" xmlns="http://www.w3.org/2000/svg">
<mask id="mask0_364_11480" style="mask-type:luminance" maskUnits="userSpaceOnUse" x="2" y="2" width="20" height="20">
<path d="M22 2H2V22H22V2Z" fill="white"/>
</mask>
<g mask="url(#mask0_364_11480)">
<path d="M2 2H22V22H2V2Z" fill="#1F1F1F"/>
<path d="M8.07178 15.5713V17.357C9.49259 17.357 10.8552 16.7926 11.8598 15.7879C12.8645 14.7833 13.4289 13.4207 13.4289 11.9999C13.4289 10.5791 12.8645 9.21646 11.8598 8.2118C10.8552 7.20714 9.49259 6.64273 8.07178 6.64273V8.42845C10.0575 8.42845 11.6432 10.0142 11.6432 11.9999C11.6432 13.9856 10.0575 15.5713 8.07178 15.5713Z" fill="white"/>
<path d="M13.4291 11.9999H11.6433C11.6433 14.9463 14.0433 17.357 17.0005 17.357V15.5713C15.0148 15.5713 13.4291 13.9784 13.4291 11.9999Z" fill="#BDBEC0"/>
</g>
</svg>

<svg xmlns="http://www.w3.org/2000/svg" width="24" height="24" fill="none" viewBox="0 0 24 24">
    <mask id="LAKE__a" width="20" height="20" x="2" y="2" maskUnits="userSpaceOnUse" style="mask-type:luminance">
        <path fill="#fff" d="M22 2H2v20h20z"/>
    </mask>
    <g mask="url(#LAKE__a)">
        <path fill="#1F1F1F" d="M2 2h20v20H2z"/>
        <path fill="#fff" d="M8.072 15.571v1.786a5.357 5.357 0 1 0 0-10.714v1.785A3.555 3.555 0 0 1 11.643 12a3.555 3.555 0 0 1-3.571 3.571"/>
        <path fill="#BDBEC0" d="M13.43 12h-1.787c0 2.946 2.4 5.357 5.357 5.357v-1.786A3.56 3.56 0 0 1 13.43 12"/>
    </g>
</svg>
